X: 52
T:Butterfly, The
M:9/8
L:1/8
R:slip jig
K:Em
B2 E G2 E F3  |B2 E G2 E FGA| B2 E G2 E F3  |B2 ^c d2 B2 AFD :|
|:B2 c e2 f g3  |B2 c g2 e dBA|B2 c e2 f g2 a |b2 a g2 e dBA :|
|:B3  B2 A G2 A|B3  BAB dBA|B3  B2 A G2 A|B2 d g2 e dBA :|
